_includes/icons/ios-free-shipping.svg

<svg fill="#666" height="50" viewBox="0 0 50 50" width="50" xmlns="http://www.w3.org/2000/svg"><path d="m3 8c-1.644531 0-3 1.355469-3 3v24c0 1.644531 1.355469 3 3 3h4.09375c.476563 2.835938 2.941406 5 5.90625 5s5.429688-2.164062 5.90625-5h9.28125c.726563 0 1.371094-.316406 1.875-.78125.515625.460938 1.175781.78125 1.9375.78125h1.09375c.476563 2.835938 2.941406 5 5.90625 5 3.300781 0 6-2.699219 6-6s-2.699219-6-6-6c-2.964844 0-5.429687 2.164063-5.90625 5h-1.09375c-.167969 0-.4375-.125-.65625-.34375s-.34375-.488281-.34375-.65625v-19c0-.167969.125-.4375.34375-.65625s.488281-.34375.65625-.34375h8c.824219 0 1.972656.925781 2.6875 1.8125l.125.1875h-4.8125c-1.601562 0-3 1.292969-3 3v4c0 .832031.375 1.5625.90625 2.09375s1.261719.90625 2.09375.90625h10v8c0 .167969-.125.4375-.34375.65625s-.488281.34375-.65625.34375h-2v2h2c.832031 0 1.5625-.375 2.09375-.90625s.90625-1.261719.90625-2.09375v-9.59375c0-1.125-.429687-2.15625-.8125-2.9375-.382812-.78125-.78125-1.34375-.78125-1.34375v-.03125l-4.09375-5.5h-.03125v-.03125c-.886719-1.109375-2.308594-2.5625-4.28125-2.5625h-8c-.359375 0-.6875.066406-1 .1875v-2.1875c0-1.644531-1.355469-3-3-3zm0 2h25c.554688 0 1 .445313 1 1v24.1875c0 .464844-.347656.8125-.8125.8125h-9.28125c-.476562-2.835937-2.941406-5-5.90625-5s-5.429687 2.164063-5.90625 5h-4.09375c-.554687 0-1-.445312-1-1v-24c0-.554687.445313-1 1-1zm35 9h6.3125l2.46875 3.28125.03125.03125c.019531.027344.289063.410156.59375 1.03125.253906.515625.386719 1.128906.46875 1.65625h-9.875c-.167969 0-.4375-.125-.65625-.34375s-.34375-.488281-.34375-.65625v-4c0-.492187.601563-1 1-1zm-33 1v5.8125h1.3125v-2.40625h2.375v-1h-2.375v-1.3125h2.6875v-1.09375zm5 0v5.59375h1.09375v-2.1875h1.3125c.898438 0 .898438.695313 1 1.59375 0 .199219-.007812.394531.09375.59375h1.3125c-.199219-.199219-.21875-.898437-.21875-1 0-1.398437-.582031-1.59375-.78125-1.59375.300781-.101562.875-.507812.875-1.40625 0-1.300781-1.1875-1.59375-1.6875-1.59375zm6 0v5.8125h4.3125v-1.125h-3.125v-1.375h2.8125v-1h-2.8125v-1.21875h3v-1.09375zm5.6875 0v5.8125h4.3125v-1.125h-3.09375v-1.375h2.78125v-1h-2.78125v-1.21875h3v-1.09375zm-10.5 1h1.40625c.300781 0 .90625.113281.90625.8125 0 .800781-.605469.78125-.90625.78125h-1.40625zm1.8125 12c2.222656 0 4 1.777344 4 4s-1.777344 4-4 4-4-1.777344-4-4 1.777344-4 4-4zm26 0c2.222656 0 4 1.777344 4 4s-1.777344 4-4 4-4-1.777344-4-4 1.777344-4 4-4z"/></svg>

<svg xmlns="http://www.w3.org/2000/svg" viewBox="0 0 50 50" width="50" height="50" fill="#666"><path d="M 3 8 C 1.355469 8 0 9.355469 0 11 L 0 35 C 0 36.644531 1.355469 38 3 38 L 7.09375 38 C 7.570313 40.835938 10.035156 43 13 43 C 15.964844 43 18.429688 40.835938 18.90625 38 L 28.1875 38 C 28.914063 38 29.558594 37.683594 30.0625 37.21875 C 30.578125 37.679688 31.238281 38 32 38 L 33.09375 38 C 33.570313 40.835938 36.035156 43 39 43 C 42.300781 43 45 40.300781 45 37 C 45 33.699219 42.300781 31 39 31 C 36.035156 31 33.570313 33.164063 33.09375 36 L 32 36 C 31.832031 36 31.5625 35.875 31.34375 35.65625 C 31.125 35.4375 31 35.167969 31 35 L 31 16 C 31 15.832031 31.125 15.5625 31.34375 15.34375 C 31.5625 15.125 31.832031 15 32 15 L 40 15 C 40.824219 15 41.972656 15.925781 42.6875 16.8125 L 42.8125 17 L 38 17 C 36.398438 17 35 18.292969 35 20 L 35 24 C 35 24.832031 35.375 25.5625 35.90625 26.09375 C 36.4375 26.625 37.167969 27 38 27 L 48 27 L 48 35 C 48 35.167969 47.875 35.4375 47.65625 35.65625 C 47.4375 35.875 47.167969 36 47 36 L 45 36 L 45 38 L 47 38 C 47.832031 38 48.5625 37.625 49.09375 37.09375 C 49.625 36.5625 50 35.832031 50 35 L 50 25.40625 C 50 24.28125 49.570313 23.25 49.1875 22.46875 C 48.804688 21.6875 48.40625 21.125 48.40625 21.125 L 48.40625 21.09375 L 44.3125 15.59375 L 44.28125 15.59375 L 44.28125 15.5625 C 43.394531 14.453125 41.972656 13 40 13 L 32 13 C 31.640625 13 31.3125 13.066406 31 13.1875 L 31 11 C 31 9.355469 29.644531 8 28 8 Z M 3 10 L 28 10 C 28.554688 10 29 10.445313 29 11 L 29 35.1875 C 29 35.652344 28.652344 36 28.1875 36 L 18.90625 36 C 18.429688 33.164063 15.964844 31 13 31 C 10.035156 31 7.570313 33.164063 7.09375 36 L 3 36 C 2.445313 36 2 35.554688 2 35 L 2 11 C 2 10.445313 2.445313 10 3 10 Z M 38 19 L 44.3125 19 L 46.78125 22.28125 L 46.8125 22.3125 C 46.832031 22.339844 47.101563 22.722656 47.40625 23.34375 C 47.660156 23.859375 47.792969 24.472656 47.875 25 L 38 25 C 37.832031 25 37.5625 24.875 37.34375 24.65625 C 37.125 24.4375 37 24.167969 37 24 L 37 20 C 37 19.507813 37.601563 19 38 19 Z M 5 20 L 5 25.8125 L 6.3125 25.8125 L 6.3125 23.40625 L 8.6875 23.40625 L 8.6875 22.40625 L 6.3125 22.40625 L 6.3125 21.09375 L 9 21.09375 L 9 20 Z M 10 20 L 10 25.59375 L 11.09375 25.59375 L 11.09375 23.40625 L 12.40625 23.40625 C 13.304688 23.40625 13.304688 24.101563 13.40625 25 C 13.40625 25.199219 13.398438 25.394531 13.5 25.59375 L 14.8125 25.59375 C 14.613281 25.394531 14.59375 24.695313 14.59375 24.59375 C 14.59375 23.195313 14.011719 23 13.8125 23 C 14.113281 22.898438 14.6875 22.492188 14.6875 21.59375 C 14.6875 20.292969 13.5 20 13 20 Z M 16 20 L 16 25.8125 L 20.3125 25.8125 L 20.3125 24.6875 L 17.1875 24.6875 L 17.1875 23.3125 L 20 23.3125 L 20 22.3125 L 17.1875 22.3125 L 17.1875 21.09375 L 20.1875 21.09375 L 20.1875 20 Z M 21.6875 20 L 21.6875 25.8125 L 26 25.8125 L 26 24.6875 L 22.90625 24.6875 L 22.90625 23.3125 L 25.6875 23.3125 L 25.6875 22.3125 L 22.90625 22.3125 L 22.90625 21.09375 L 25.90625 21.09375 L 25.90625 20 Z M 11.1875 21 L 12.59375 21 C 12.894531 21 13.5 21.113281 13.5 21.8125 C 13.5 22.613281 12.894531 22.59375 12.59375 22.59375 L 11.1875 22.59375 Z M 13 33 C 15.222656 33 17 34.777344 17 37 C 17 39.222656 15.222656 41 13 41 C 10.777344 41 9 39.222656 9 37 C 9 34.777344 10.777344 33 13 33 Z M 39 33 C 41.222656 33 43 34.777344 43 37 C 43 39.222656 41.222656 41 39 41 C 36.777344 41 35 39.222656 35 37 C 35 34.777344 36.777344 33 39 33 Z"/></svg>
